X:15461
%10727
T:Merrydale Romp
% Nottingham Music Database
S:Dennis Salter, via PR
M:4/4
L:1/4
K:Cmaj
E/2F/2|"C"GE/2G/2 cB/2c/2|AG G2|"C"GE/2G/2 c/2B/2A/2G/2|"Dm"FD D2|\
"Dm"FE/2F/2 "G7"BB|
"Dm"FE/2F/2 "G7"B2|"Dm"FD/2F/2 "G7"B/2A/2G/2F/2|"C"AG G2|"C"GE/2G/2 cB/2c/2|\
AG G2|"C"cB/2c/2 "C7"dc|
"F"c
